X: 1
T: Mulhaire's
R: reel
M: 4/4
L: 1/8
K: Dmaj
F2AF DFAF|G2BG DGBd|ceAc eAcA|dcde fdAG|
F2AF DFAF|GBB2 dBB2|Acef gAce|1 eddc dBAG:|2 eddc defg|
|:a2fd adfd|adfd edB^d|e^def gfga|bee2 bege|
a2fd adfd|adfd edBA|F2AF GBdB|AFEF D4:||


Tune 1473	Setting 22882

